src/data/eyes/1f62a.svg

<svg xmlns="http://www.w3.org/2000/svg" viewBox="0 0 36 36"><path d="M4.999 16a1 1 0 0 1-.799-1.6C7.462 10.05 11.816 10 12 10a1 1 0 0 1 .004 2c-.156.002-3.569.086-6.205 3.6a.995.995 0 0 1-.8.4zM31.001 16a.998.998 0 0 1-.801-.4c-2.641-3.521-6.061-3.599-6.206-3.6a1.002 1.002 0 0 1-.991-1.005A.997.997 0 0 1 24 10c.184 0 4.537.05 7.8 4.4a1 1 0 0 1-.799 1.6zM28.345 17.64a.5.5 0 0 0-.643-.042c-.012.009-1.262.902-3.702.902-2.441 0-3.69-.893-3.7-.9a.499.499 0 0 0-.716.678c.061.09 1.515 2.222 4.416 2.222 2.9 0 4.355-2.132 4.416-2.223a.498.498 0 0 0-.071-.637zM15.703 17.598c-.013.009-1.262.902-3.703.902-2.442 0-3.69-.893-3.7-.9a.499.499 0 0 0-.716.678c.061.09 1.515 2.222 4.416 2.222 2.9 0 4.355-2.132 4.416-2.223a.5.5 0 0 0-.713-.679z" style="fill:#664500;fill-opacity:1"/></svg>

<?xml version="1.0" encoding="UTF-8" standalone="no"?>
<svg
   xmlns:dc="http://purl.org/dc/elements/1.1/"
   xmlns:cc="http://creativecommons.org/ns#"
   xmlns:rdf="http://www.w3.org/1999/02/22-rdf-syntax-ns#"
   xmlns:svg="http://www.w3.org/2000/svg"
   xmlns="http://www.w3.org/2000/svg"
   xmlns:sodipodi="http://sodipodi.sourceforge.net/DTD/sodipodi-0.dtd"
   xmlns:inkscape="http://www.inkscape.org/namespaces/inkscape"
   viewBox="0 0 36 36"
   version="1.1"
   id="svg8"
   sodipodi:docname="1f62a.svg"
   inkscape:version="1.0.1 (3bc2e813f5, 2020-09-07)">
  <metadata
     id="metadata14">
    <rdf:RDF>
      <cc:Work
         rdf:about="">
        <dc:format>image/svg+xml</dc:format>
        <dc:type
           rdf:resource="http://purl.org/dc/dcmitype/StillImage" />
        <dc:title></dc:title>
      </cc:Work>
    </rdf:RDF>
  </metadata>
  <defs
     id="defs12" />
  <sodipodi:namedview
     pagecolor="#ffffff"
     bordercolor="#666666"
     borderopacity="1"
     objecttolerance="10"
     gridtolerance="10"
     guidetolerance="10"
     inkscape:pageopacity="0"
     inkscape:pageshadow="2"
     inkscape:window-width="1366"
     inkscape:window-height="728"
     id="namedview10"
     showgrid="false"
     inkscape:zoom="11.652778"
     inkscape:cx="19.053022"
     inkscape:cy="26.139969"
     inkscape:window-x="3840"
     inkscape:window-y="312"
     inkscape:window-maximized="1"
     inkscape:current-layer="svg8" />
  <path
     d="M 4.999,16 C 4.791,16 4.58,15.935 4.4,15.8 3.958,15.469 3.869,14.842 4.2,14.4 7.462,10.05 11.816,10 12,10 c 0.552,0 1,0.448 1,1 0,0.551 -0.445,0.998 -0.996,1 -0.156,0.002 -3.569,0.086 -6.205,3.6 -0.195,0.262 -0.496,0.4 -0.8,0.4 z"
     id="path847"
     style="fill:#664500;fill-opacity:1" />
  <path
     d="M 31.001,16 C 30.696,16 30.397,15.862 30.2,15.6 27.559,12.079 24.139,12.001 23.994,12 23.444,11.994 23,11.544 23.003,10.995 23.006,10.444 23.45,10 24,10 c 0.184,0 4.537,0.05 7.8,4.4 0.332,0.442 0.242,1.069 -0.2,1.4 -0.18,0.135 -0.39,0.2 -0.599,0.2 z"
     id="path845"
     style="fill:#664500;fill-opacity:1" />
  <path
     d="M 28.345,17.64 C 28.17,17.471 27.898,17.454 27.702,17.598 27.69,17.607 26.44,18.5 24,18.5 c -2.441,0 -3.69,-0.893 -3.7,-0.9 -0.193,-0.146 -0.466,-0.132 -0.644,0.037 -0.177,0.167 -0.207,0.438 -0.072,0.641 0.061,0.09 1.515,2.222 4.416,2.222 2.9,0 4.355,-2.132 4.416,-2.223 0.135,-0.201 0.104,-0.469 -0.071,-0.637 z"
     id="path843"
     style="fill:#664500;fill-opacity:1" />
  <path
     d="M 15.703,17.598 C 15.69,17.607 14.441,18.5 12,18.5 9.558,18.5 8.31,17.607 8.3,17.6 8.106,17.454 7.834,17.468 7.656,17.637 7.479,17.804 7.448,18.075 7.584,18.278 7.645,18.368 9.099,20.5 12,20.5 c 2.9,0 4.355,-2.132 4.416,-2.223 0.134,-0.202 0.104,-0.47 -0.071,-0.638 -0.176,-0.169 -0.449,-0.184 -0.642,-0.041 z"
     id="path841"
     style="fill:#664500;fill-opacity:1" />
</svg>
